X:5204
T:Polska i A efter Matts Ersson
O:england
R:Polska
Q:150
M:3/4
L:1/8
S:Uppt. efter John-Erik Mattsson
A:Digerberget, S.J\"amtland
K:A
A>c e3 e | (3fgf e3 E |\
GA Bc de | (3f(gf) (3e(fe) c2 |\
A>c e3e | (3fgf e3 E |
A>c de fg|a2 a4::\
vd2 (f>d) fa | (ab/a/) .g.e c2 |
(3c(dc) BE GB | (3B(cB) A>c e>>ue |\
vd2 (f>d) fa | (ab/a/) .g.e c2 |\
(3c(dc) BE GB | ((3BcB) A4:|


